public/avatar/item0/49.svg

<svg xmlns:xlink="http://www.w3.org/1999/xlink" height="58.65" width="49.15" xmlns="http://www.w3.org/2000/svg"><use height="4.8" transform="translate(11.2 33)" width="25.25" xlink:href="#a"/><defs><g id="a" fill-rule="evenodd"><path d="M10.5 14.9q2.4-.05 1.65 2.35-.7 2.45-3 2.45-.95-.05-1.7-1.05-.75-.95-.5-1.8.45-1.8 3.55-1.95" fill="#ff0" transform="translate(12.9 -14.9)"/><path d="M10.5 14.9q1.5-.05 1.75 1.15.2 1.1-.65 2.3L9.85 15l.65-.1" fill="red" transform="translate(12.9 -14.9)"/><path d="M6.95 16.85Q7.1 16.2 8 15.7l2 3.85-.85.15q-.95-.05-1.7-1.05-.75-.95-.5-1.8" transform="translate(12.9 -14.9)"/><path d="M-12.7 17.25q-.75-2.4 1.65-2.35 3.05.15 3.6 1.95.25.85-.55 1.8-.75 1-1.7 1.05-2.25 0-3-2.45" fill="#ff0" transform="translate(12.9 -14.9)"/><path d="m-11.05 14.9.55.05-1.4 3.7q-1.05-1.15-.9-2.4.15-1.4 1.75-1.35" transform="translate(12.9 -14.9)"/><path d="M-7.45 16.85q.25.85-.55 1.8-.75 1-1.7 1.05l-.7-.1 1.85-3.9q.9.5 1.1 1.15" fill="red" transform="translate(12.9 -14.9)"/></g></defs></svg>

<?xml version="1.0" encoding="UTF-8" standalone="no"?>
<svg xmlns:xlink="http://www.w3.org/1999/xlink" height="58.65px" width="49.15px" xmlns="http://www.w3.org/2000/svg">
  <g transform="matrix(1.0, 0.0, 0.0, 1.0, 24.1, 18.1)">
    <use height="4.8" transform="matrix(1.0, 0.0, 0.0, 1.0, -12.9, 14.9)" width="25.25" xlink:href="#shape0"/>
  </g>
  <defs>
    <g id="shape0" transform="matrix(1.0, 0.0, 0.0, 1.0, 12.9, -14.9)">
      <path d="M10.5 14.9 Q12.9 14.85 12.15 17.25 11.45 19.7 9.15 19.7 8.2 19.65 7.45 18.65 6.7 17.7 6.95 16.85 7.4 15.05 10.5 14.9" fill="#ffff00" fill-rule="evenodd" stroke="none"/>
      <path d="M10.5 14.9 Q12.0 14.85 12.25 16.05 12.45 17.15 11.6 18.35 L9.85 15.0 10.5 14.9" fill="#ff0000" fill-rule="evenodd" stroke="none"/>
      <path d="M6.95 16.85 Q7.1 16.2 8.0 15.7 L10.0 19.55 9.15 19.7 Q8.2 19.65 7.45 18.65 6.7 17.7 6.95 16.85" fill="#000000" fill-rule="evenodd" stroke="none"/>
      <path d="M-12.7 17.25 Q-13.45 14.85 -11.05 14.9 -8.0 15.05 -7.45 16.85 -7.2 17.7 -8.0 18.65 -8.75 19.65 -9.7 19.7 -11.95 19.7 -12.7 17.25" fill="#ffff00" fill-rule="evenodd" stroke="none"/>
      <path d="M-11.05 14.9 L-10.5 14.95 -11.9 18.65 Q-12.95 17.5 -12.8 16.25 -12.65 14.85 -11.05 14.9" fill="#000000" fill-rule="evenodd" stroke="none"/>
      <path d="M-7.45 16.85 Q-7.2 17.7 -8.0 18.65 -8.75 19.65 -9.7 19.7 L-10.4 19.6 -8.55 15.7 Q-7.65 16.2 -7.45 16.85" fill="#ff0000" fill-rule="evenodd" stroke="none"/>
    </g>
  </defs>
</svg>
